X:646
T:Reel 646
M:4/4
K:Gmaj
L:1/8
g/2f/2|edcB AAdf|gedc BGGf|e2cd cAAg|edcB ABcd|e| (3ddd ec BGBd|efgd eAAf|edcB A2GA|Bdef g2|ga|bggf gfed|cBAB cAAc|BA (3AGc gabg|fdef g2ga|bggf gfed|cABG AGBG|AGFA Ggge|dBAc BGG|
